X:121
M:C
L:1/8
K:F
a|f>ga>g f>c A<F|A<f f>g a>d d<e|f>ga>g f<cA<F|G>B A>^c d>D D<a|
f>ga>g f>c A<F|A<f f>g a<d d>f|(3agf (3efg (3fed (3cBA|(3BAG (3AB^c d<DD||

